components/2.0/icon/icons/icon-swap-22px.svg

<svg width="22" height="22" xmlns="http://www.w3.org/2000/svg"><g fill="#3D4752" fill-rule="evenodd"><path d="M3 14l5-3v2h11v2H8v2l-5-3zM19 8l-5 3V9H3V7h11V5l5 3z"/></g></svg>

<?xml version="1.0" encoding="UTF-8" standalone="no"?>
<svg width="22px" height="22px" viewBox="0 0 22 22" version="1.1" xmlns="http://www.w3.org/2000/svg" xmlns:xlink="http://www.w3.org/1999/xlink" xmlns:sketch="http://www.bohemiancoding.com/sketch/ns">
    <!-- Generator: Sketch 3.4.4 (17249) - http://www.bohemiancoding.com/sketch -->
    <title>icon-swap-22px</title>
    <desc>Created with Sketch.</desc>
    <defs></defs>
    <g id="22px" stroke="none" stroke-width="1" fill="none" fill-rule="evenodd" sketch:type="MSPage">
        <g id="icon-swap-22px" sketch:type="MSArtboardGroup" fill="#3D4752">
            <path d="M3,14 L8,11 L8,13 L19,13 L19,15 L8,15 L8,17 L3,14 Z" id="Shape" sketch:type="MSShapeGroup"></path>
            <path d="M19,8 L14,11 L14,9 L3,9 L3,7 L14,7 L14,5 L19,8 Z" id="Shape" sketch:type="MSShapeGroup"></path>
        </g>
    </g>
</svg>
